X:1
T:E ne la face de begli occhi
T:Jean de Castro
T:Source : Chansons, madrigaux et motetz à 3 parties---Anvers---P.Phalèse---1582. Editor : André Vierendeels (09/02/).
T:Notes : Original clefs : C1, C3, C4 Editorial accidentals above the staff Square brackets indicate ligatures Text by Ludovico Ariosto ( Orlando fusrioso-Canto 66) This is the "seconde partie" of "Er'il bel viso suo" 
T:E ne la face de begli occhi
T:©
T:©
T:©
T:©
T:©
T:©
T:©
T:©
T:©
T:©
C:Jean de Castro
Z:©
%%score [ 1 [ 2 3 ] ]
L:1/8
Q:1/4=142
M:2/2
K:C
V:1 treble nm="Superius" snm="S"
V:2 treble-8 nm="Tenor 1" snm="T 1"
V:3 treble-8 nm="Tenor 2" snm="T 2"
V:1
 D8 | F4 G4 | A6 G2 | A2 B2 c4- | c4 B2 A2 | B8 | c8 | z4 A4 | A4 G4 | F4 F4 | E8- | E4 F4 | %12
w: E|ne la|fa- *||||ce|e|ne la|fa- ce|de|_ be-|
 G4 A4- | A4 G4 | A4 c4 | c2 B2 A2 G2 | A4 G4 | c8 | A4 A4 | ^G4 G4 | A6 G2 | F4 E4 | D8 | C4 E4 | %24
w: gli'oc- chi'ac-|* cen-|de l'au-|ra- * * *|to, l'au-|ra-|to stra-|le, e|nel ru-|scel- lo'a-|mor-|za, a-|
 F4 D4 | G8 | F4 D4 | F4 G4 | A6 G2 | A2 B2 c4- | c4 B2 A2 | B8 | c8 | z4 A4 | A4 G4 | F4 F4 | %36
w: mor- *||za, che|tra ver-|mi- *||||glie,|che|tra ver-|mi- gli'e|
 E8- | E4 F4 | G4 A4- |"^#" A4 G4 | A4 E4- | E4 E4 | E8 | D4 D4 | E8 | z4 A4 | A8 | ^G4 G4 | A8 | %49
w: bian-|* chi|fio- ri|_ scen-|d'e tem-|* pe-|ra-|to che|l'ha,|e|tem-|pe- ra-|to,|
 c4 B2 c2 | d4 A4 | c4 B2 c2 | d4 A4 | z2 c2 B2 c2 | d4 c4 | z2 e2 d2 e2 | f4 e4 | d8 | d4 ^c4 | %59
w: ti- ra di|for- za,|ti- ra di|for- za,|ti- ra di|for- za,|ti- ra di|for- za,|con-|tra'il gar-|
 d4 A4 | B4 c4- | c2 A2 d4 | c4 d2 A2 | B4 c4- | c4 A4 | z2 c2 B4 | c8- | c8 | z4 A4 | d8 | %70
w: zon, che|ne scu-|* do dif-|fen- de, dif-|fen- *|* de,|dif- fen-|de,|_|nè|ma-|
 G4 c4- | c4 F4 | z4 A4 | B4 c4- | c4 B4 | A4 G4 | A8 | G8 | F4 c4 | c4 A4 | B4 c4 | d8 | z4 c4 | %83
w: glia dop-|* pia,|ne|fer- ri-|* gna|scor- *|||za, che|men- tre|st'a mi-|rar,|che|
 c4 A4 | B4 c4 | F8- | F4 E4 | G4 G4 | A8 | G8 | z8 | z4 c4 | c4 A4 | B4 c4 | A8 | G4 F4 | %96
w: men- tre|st'a mi-|rar|_ gli'oc-|chi'e le|chio-|me,||si|sen- te'il|cor fe-|ri-|to, fe-|
 F4 E2 D2 | E4 A4 | A8- | A8 | z4 d4 | ^c8- | c4 ^c4 | z4 A4 | E8 | F8 | E8 |"^-natural" E4 c4 | %108
w: ri- * *|to e|non,|_|e|non|_ fa,|e|non|fa|co-|me, che|
 c4 A4 | B4 c4 | d8 | z4 c4 | c4 A4 | B4 c4 | F8- | F4 E4 | G4 G4 | A8 | G8 | z8 | z4 c4 | c4 A4 | %122
w: men- tre|st'a mi-|rar,|che|men- tre|st'a mi-|rar,|_ gli'oc-|chi'e le|chio-|me,||si|sen- te'il|
 B4 c4 | A8 | G4 F4 | F4 E2 D2 | E4 A4 | A8- | A8 | z4 d4 | ^c8- | c4 ^c4 | z4 A4 | E8 | F8 | E8 | %136
w: cor fe-|ri-|to, fe-|ti- * *|to, e|non,|_|e|non|_ fa,|e|non|fa|co-|
 E4 z4 | F8 | F4 E4 | D8 | ^C8 |] %141
w: me,|e|non fa|co-|me.|
V:2
 z4 d4 | d4 c4 | f8- | f4 e4 | z4 a4 | a4 ^g4 | a8 | e4 f4 | f4 e4 | d4 d4 | c8- | c4 A4 | B4 d4 | %13
w: E|ne la|fa-|* ce,|e|ne la|fa-|ce, e|ne la|fa- ce|de|_ be-|gli'oc- chi'ac-|
 B8 | A4 a4 | a2 g2 f2 e2 | f4 e4 | z4 e4 | e4 d4 | e4 e4 | f6 e2 | d4 c4- | c4 B4 | c2 c2 c2 B2 | %24
w: cen-|de l'au-|ra- * * *|* to,|l'au-|ra- to|stra- le,|nel ru-|scel- lo'a-|* mor-|za, nel ru- scel-|
 A4 d4- | d4 c4 | d4 z2 d2 | d4 c4 | f8- | f4 e4 | z4 a4 | a4 g4 | a8 | e4 f4 | f4 e4 | d4 d4 | %36
w: lo'a- mor-||za, che|tra ver-|mi-|* glie,|che|tra ver-|mi-|glie, che|tra ver-|mi- gli'e|
 c8- | c4 A4 | B4 d4 | B8 | A4 c4- | c4 c4 | c8 | B4 B4 | A4 c4- | c4 c4 | d8 | B4 B4 | A4 f4 | %49
w: bian-|* chi|fio- ri|scen-|d'e tem-|* pe-|ra-|to che|_ l'ha,|_ e|tem-|pe- ra-|to, ri-|
 e2 f2 g4 | d4 f4 | e2 f2 g4 | f4 z2 d2 | c3 d e4 | d4 z2 a2 | g2 g2 g4 | f4 z2 a2 | f2 f2 f4 | %58
w: ra di for-|za, ti-|ra di for-|za, ti-|ra di for-|za, ti-|ra di for-|za, ti-|ra di for-|
 g2 g2 e2 e2 | ^f4 f4 | g4 a4- | a2 d2 d4 | e4 d4 | ^f4 g4 | a6 ^f2 | g4 g4 | a4 e4- | e4 a4- | %68
w: za, con- tra'il gar-|zon, che|ne scu-|* do dif-|fen- de,|dif- fen-|de, dif-|fen- de,|nè ma-|* glia|
 a4 d4- | d4 g4 | e4 e4 | a8 | f4 f4 | e4 a4- | a4 d4 | e8- | e4 f4- | f4 e4 | f4 a4 | a4 f4 | %80
w: _ dop-|* pia,|ne ma-|glia|dop- pia,|ne ne|_ fer-|ri-|* gna|_ scor-|za, che|men- tre|
 g4 f4 | d2 e2 f2 g2 | a4 e4 | e4 f4 | d4 c4 | d8 | c8 | d4 e4- | e4 d4 | e4 e4 | e4 c4 | d4 g4- | %92
w: st'a mi-|rar, _ _ _|_ che|men- tre|st'a mi-|rar|gli'oc-|chi'e le|_ chio-|me, si|sen- te'il|cor fe-|
 g4 f4 | g4 z2 c2 | c4 A4 | B4 c4 | d8 | c8 | z4 f4 | e4 f4- | f4 d4 | e8 | z4 e4 | f4 d4 | c8- | %105
w: * ri-|to, si|sen- te'il|cor fe-|ri-|to,|e|non, fa|_ co-|me,|e|non, e|non|
 c4 d4- | d4 c2 B2 | ^c4 z2 a2 | a4 e4 | g4 f4 | d2 e2 f2 g2 | a4 e4 | e4 f4 | d4 c4 | d8 | c8 | %116
w: _ fa|_ co- *|me, che|men- tre|st'a mi-|rar _ _ _|_ che|men- tre|st'a mi-|rar,|gli'oc-|
 d4 e4- | e4 d4 | e4 e4 | e4 c4 | d4 g4- | g4 f4 | g4 z2 c2 | c4 A4 | B4 c4 | d8 | c8 | z4 f4 | %128
w: chi'e le|_ chio-|me, si|sen- te'il|cor fe-|* ri-|to, si|sen- te'il|cor fe-|ri-|to,|e|
 e4 f4- | f4 d4 | e8 | z4 e4 | f4 d4 | c8- | c4 d4 | z2 c2 c4- | c4 d4 | z2 d2 d4- | d4 e4 | f8 | %140
w: non, fa|_ co-|me,|e|non, fa|co-|* me,|e non|_ fa|e non|_ fa|co-|
 e8 |] %141
w: me.|
V:3
 z8 | z8 | z4 d4 | d4 c4 | f8 | e8 | A8 | z4 D4 | D4 E4 | F4 D4 | A8- | A4 F4 | E4 D4 | E8 | A8 | %15
w: ||E|ne la|fa-||ce,|e|ne la|fa- ce|de|_ be-|gli'oc- chi'ac-|cen-|de|
 z8 | z4 c4 | c2 B2 A2 G2 | F4 F4 | E8 | z8 | z8 | z4 G4 | A6 G2 | F4 G4 | E8 | D8 | z8 | z4 d4 | %29
w: |l'au-|ra- * * *|to stra-|le,|||nel|ru scel-|lo'a- mor-||za||che|
 d4 c4 | f8 | e8 | A8 | z4 D4 | D4 E4 | F4 D4 | A8- | A4 F4 | E4 D4 | E8 | A8- | A8- | A8 | z8 | %44
w: tra ver-|mi-||glie|che|tra ver-|mi- gli'e|bian-|* chi|fio- ri|scen-|d'e|_|||
 z4 A4- | A4 A4 | D8 | E4 E4 | F8 | z8 | z4 d4 | c2 d2 e4 | d8 | A4 G2 A2 | _B4 A4 | c4 B2 c2 | %56
w: tem-|* pe-|ra-|to che|l'ha,||ti-|ra di for-|za,|ti- ra di|for- za,|ti- ra di|
 d4 A4 | _B8 | G4 A4 | D8 | z8 | z8 | z4 d4- | d4 e4 | f6 d2 | e4 e4 | A8 | z4 A4 | d8 | G8 | c8 | %71
w: for- za,|con-|tra'il gar-|zon,|||che|_ ne|scu- do|dif- fen-|de,|ne|ma-|glia|dop-|
 F8- | F8 | z4 A4- | A4 B4 | c6 B2 | A4 F4 | c8 | F8- | F8 | z8 | z8 | A8 | A4 F4 | G4 A4 | _B8 | %86
w: pia|_|ne|_ fer-|ri- *|* gna|scor-|za,||||che|men- tre|st'a mi-|rar|
 A8 | G4 E4 | F8 | E4 c4 | c4 A4 | B4 c4 | A8 | G4 A4 | A4 F4 | G4 A4 |"^b" B8 | A8 | z4 d4 | A8 | %100
w: gli'oc-|chi'e le|chio-|me, si|sen- te'il|cor fe-|ri-|to, si|sen- te'il|cor fe-|ri-|to,|e|non|
 _B8 | A8- | A8 | D8 | z4 A4 | F4 D4 | A8- | A8 | A8 | z8 | z8 | A8 | A4 F4 | G4 A4 | _B8 | A8 | %116
w: fa|co-||me,|e|non fa|co-||me,|||che|men- tre|st'a mi-|rar,|gli'oc-|
 G4 E4 | F8 | E4 c4 | c4 A4 | B4 c4 | A8 | G4 A4 | A4 F4 | G4 A4 |"^b" B8 | A8 | z4 d4 | A8 | _B8 | %130
w: chi'e le|chio-|me, si|sen- te'il|cor fe-|ri-|to, si|sen- te'il|cor fe-|ri-|to,|e|non|fa|
 A8- | A8 | D8 | z4 A4 | F4 D4 | A8 | A4 z2 D2 | D8- | D4 ^C4 | D8 | A8 |] %141
w: co-||me,|e|non fa|co-|me, e|non|_ fa|co-|me.|

